X:163
M:4/4
L:1/8
K:G
| DGGG G2B/c/d | e2dB gedB | A2AA A2B/A/G | E2DE GEDE | 
| B/c/d ed BedB | dGGG EGDG | Bddg egdB | dBAG EGG2 | 

